src/svg/down-circled2.svg

<svg height="1000" width="857.143" xmlns="http://www.w3.org/2000/svg"><path d="M624.96 517.888q0 6.696 -5.58 13.392l-178.002 178.002q-6.138 5.022 -12.834 5.022t-12.834 -5.022l-178.56 -178.56q-8.37 -8.928 -3.906 -19.53 4.464 -11.16 16.74 -11.16h107.136v-196.416q0 -7.812 5.022 -12.834t12.834 -5.022h107.136q7.812 0 12.834 5.022t5.022 12.834v196.416h107.136q7.812 0 12.834 5.022t5.022 12.834zm-196.416 -321.408q-82.584 0 -152.334 40.734t-110.484 110.484 -40.734 152.334 40.734 152.334 110.484 110.484 152.334 40.734 152.334 -40.734 110.484 -110.484 40.734 -152.334 -40.734 -152.334 -110.484 -110.484 -152.334 -40.734zm428.544 303.552q0 116.622 -57.474 215.109t-155.961 155.961 -215.109 57.474 -215.109 -57.474 -155.961 -155.961 -57.474 -215.109 57.474 -215.109 155.961 -155.961 215.109 -57.474 215.109 57.474 155.961 155.961 57.474 215.109z"/></svg>

<svg height="1000" width="857.1" xmlns="http://www.w3.org/2000/svg"><path d="M625 517.9q0 6.7 -5.6 13.4l-178 178q-6.1 5 -12.8 5t-12.9 -5L237.2 530.7q-8.4 -8.9 -3.9 -19.5Q237.7 500 250 500h107.1V303.6q0 -7.8 5.1 -12.9t12.8 -5h107.1q7.9 0 12.9 5t5 12.9V500h107.1q7.9 0 12.9 5t5 12.9zM428.6 196.4q-82.6 0 -152.4 40.8T165.7 347.7 125 500t40.7 152.3 110.5 110.5 152.4 40.8 152.3 -40.8T691.4 652.3 732.1 500 691.4 347.7 580.9 237.2 428.6 196.4zM857.1 500q0 116.6 -57.4 215.1t-156 156 -215.1 57.5T213.4 871.1 57.5 715.1 0 500 57.5 284.9t155.9 -156T428.6 71.4t215.1 57.5 156 156T857.1 500z"/></svg>
